X:1
T:Title
%%score ( 1 2 ) { 3 | 4 }
L:1/8
Q:1/4=104
M:4/4
K:G
V:1 treble nm="Grand Piano, Soprano"
V:2 treble 
V:3 bass nm="Choir Pad, Speak Just a Word"
V:4 bass 
V:1
 [DB]2 [DB]>[DB] [Ec]2 [DB]2 | [CA]4 [CE]4 | [CF]2 [CF]>[CE] [CD]2 [Ec]2 | [DB]6 z2 | %4
w: By~Daniel~Brink~Towner * * * *||||
 [DB]2 [DB]>[DB] [Ec]2 [DB]2 | [CA]4 [CE]4 | [CF]2 [DF]>[DG] [FA]2 [FB]2 | G6 z2 | d6 z2 | B6 z2 | %10
w: ||||||
 [FA]2 [FA]>[GB] [Ac]2 [Fd]2 | [GB]6 z2 | d6 z2 | B6 z2 | [FA]2 [FA][GB] [Ac]<[Ac] [DF]2 | [DG]8 |] %16
w: ||||||
V:2
 x8 | x8 | x8 | x8 | x8 | x8 | x8 | x8 | G2 G>G G2 [Ge]>[Gd] | G2 G2 GG z2 | x8 | x8 | %12
 G2 G>G G2 [Ge]>[Gd] | G2 G2 GG z2 | x8 | x8 |] %16
V:3
 G,2 G,>G, G,2 G,2 | E,4 A,4 | A,2 A,>A, A,2 F,2 | G,6 z2 | G,2 G,>G, G,2 G,2 | E,4 A,4 | %6
 A,2 A,>B, C2 D2 | B,6 z2 | B,2 B,>C D2 C>D | D2 D2 DD z2 | D2 C>B, A,2 A,2 | G,6 z2 | %12
 B,2 B,>C D2 C>D | D2 D2 DD z2 | D2 DD D<D D2 | B,8 |] %16
V:4
 z8 | C,4 C,4 | D,2 D,>D, D,2 D,2 | z8 | z8 | C,4 C,4 | D,2 D,>D, D,2 D,2 | [G,,G,]6 z2 | %8
 G,2 G,>A, B,2 z z/ B,/ | G,2 G,2 G,G, z2 | D,2 D,>D, D,2 D,2 | z8 | G,2 G,>A, B,2 z z/ B,/ | %13
 G,2 G,2 G,G, z2 | D,2 D,D, D,<D, D,2 | [G,,G,]8 |] %16

